src/svg/documemt-doc-24-line.svg

<?xml version="1.0" encoding="UTF-8"?>
<svg id="Layer_1" data-name="Layer 1" xmlns="http://www.w3.org/2000/svg" viewBox="0 0 16 16">
  <defs>
    <style>
      .cls-1 {
        fill: #fff;
      }
    </style>
  </defs>
  <rect class="cls-1" width="16" height="16"/>
  <path d="M3.69,9.16c.11.02.21.06.31.1V3c0-.55.45-1,1-1h3v2.5c0,.83.67,1.5,1.5,1.5h2.5v3.15c.38.12.72.32,1,.59v-4.34c0-.4-.16-.78-.44-1.06l-2.91-2.9c-.28-.28-.67-.44-1.06-.44h-3.59c-1.1,0-2,.9-2,2v6.08h.03c.26,0,.49.04.66.08ZM9,2.21l2.79,2.79h-2.29c-.28,0-.5-.22-.5-.5v-2.29ZM2.63,10.07h-.94c-.38,0-.53.26-.53.47v3.91c0,.22.16.47.53.47h.94c.86,0,1.48-.58,1.48-1.33v-2.2c0-.76-.62-1.33-1.48-1.33ZM3.09,13.48c0,.34-.24.5-.47.5h-.47v-2.95h.47c.23,0,.47.16.47.49v1.96ZM6.44,10.01c-.8,0-1.48.58-1.48,1.33v2.32c0,.76.67,1.34,1.48,1.34s1.48-.58,1.48-1.34v-2.32c0-.75-.67-1.33-1.48-1.33ZM6.91,13.53c0,.35-.24.5-.47.5s-.46-.15-.46-.5v-2.08c0-.34.23-.5.46-.5s.47.16.47.5v2.08ZM11.74,13.5v.15c0,.76-.67,1.34-1.48,1.34s-1.48-.58-1.48-1.34v-2.32c0-.75.69-1.33,1.47-1.33.65,0,1.42.36,1.42,1.13v.04c0,.24-.19.47-.5.47s-.44-.23-.51-.42l-.02-.07c-.04-.14-.2-.2-.37-.2-.28,0-.47.2-.47.5v2.08c0,.35.23.5.47.5s.46-.15.46-.5v-.03c0-.24.16-.51.5-.51s.51.28.51.51Z"/>
</svg>

<svg width="16" height="16" viewBox="0 0 16 16" fill="none" xmlns="http://www.w3.org/2000/svg">
<rect width="16" height="16" fill="white"/>
<path d="M3.69 9.16C3.8 9.18 3.9 9.22 4 9.26V3C4 2.45 4.45 2 5 2H8V4.5C8 5.33 8.67 6 9.5 6H12V9.15C12.38 9.27 12.72 9.47 13 9.74V5.4C13 5 12.84 4.62 12.56 4.34L9.65 1.44C9.37 1.16 8.98 1 8.59 1H5C3.9 1 3 1.9 3 3V9.08H3.03C3.29 9.08 3.52 9.12 3.69 9.16ZM9 2.21L11.79 5H9.5C9.22 5 9 4.78 9 4.5V2.21Z" fill="#242424"/>
<path d="M4 10.98C4 10.98 4 10.98 4 10.97C3.85 10.55 3.48 10.24 3 10.13C2.87 10.1 2.74 10.08 2.6 10.08H1.66C1.28 10.08 1.13 10.34 1.13 10.55V14.46C1.13 14.68 1.29 14.93 1.66 14.93H2.6C3.05 14.93 3.42 14.76 3.68 14.5C3.82 14.37 3.93 14.21 3.99 14.03C4.04 13.9 4.07 13.75 4.07 13.6V11.4C4.07 11.25 4.04 11.11 3.99 10.98H4ZM3.07 13.48C3.07 13.81 2.83 13.97 2.61 13.97H2.14V11.02H2.61C2.77 11.02 2.92 11.1 3.01 11.26C3.05 11.33 3.08 11.41 3.08 11.51V13.47L3.07 13.48Z" fill="#242424"/>
<path d="M11.24 12.99C10.9 12.99 10.74 13.27 10.74 13.5V13.53C10.74 13.79 10.61 13.94 10.45 14C10.39 14.02 10.34 14.03 10.28 14.03C10.22 14.03 10.16 14.02 10.1 14C9.94 13.94 9.81 13.79 9.81 13.53V11.45C9.81 11.15 10.01 10.95 10.28 10.95C10.45 10.95 10.61 11.01 10.65 11.15L10.67 11.22C10.73 11.42 10.87 11.64 11.18 11.64C11.49 11.64 11.68 11.4 11.68 11.17V11.13C11.68 10.35 10.92 10 10.26 10C9.6 10 9.06 10.38 8.87 10.93C8.82 11.06 8.79 11.19 8.79 11.33V13.65C8.79 13.77 8.82 13.89 8.85 14H8.87C8.87 14 8.87 14.04 8.87 14.06C9.06 14.61 9.62 14.99 10.28 14.99C11.09 14.99 11.76 14.41 11.76 13.65V13.49C11.76 13.25 11.59 12.98 11.25 12.98L11.24 12.99Z" fill="#242424"/>
<path d="M7.84 10.93C7.65 10.39 7.09 10.01 6.44 10.01C5.79 10.01 5.23 10.4 5.04 10.94C5 11.07 4.97 11.2 4.97 11.34V13.66C4.97 13.78 5 13.9 5.03 14.01H5.05C5.05 14.01 5.05 14.05 5.05 14.06C5.24 14.61 5.8 15 6.45 15C7.1 15 7.66 14.62 7.85 14.07C7.85 14.05 7.85 14.03 7.85 14.01H7.87C7.9 13.9 7.93 13.79 7.93 13.66V11.34C7.93 11.2 7.9 11.06 7.85 10.94L7.84 10.93ZM6.44 14.03C6.38 14.03 6.32 14.02 6.27 14C6.11 13.94 5.98 13.79 5.98 13.53V11.45C5.98 11.11 6.21 10.95 6.44 10.95C6.67 10.95 6.9 11.11 6.9 11.45V13.53C6.9 13.79 6.77 13.94 6.61 14C6.55 14.02 6.5 14.03 6.44 14.03Z" fill="#242424"/>
</svg>
